22x22/mimetypes/application-x-hda.svg

<svg xmlns="http://www.w3.org/2000/svg" width="22" height="22" version="1.1">
 <path style="opacity:0.2" d="M 2.0039,7.2186 C 2.0016,7.256 2.0003,7.2935 2,7.3309 V 14.971 C 2.0002,15.769 2.4354,16.506 3.1416,16.905 L 9.8584,20.701 C 10.565,21.1 11.435,21.1 12.142,20.701 L 18.858,16.905 C 19.565,16.506 20,15.768 20,14.97 V 7.3309 C 19.999,7.3027 19.997,7.2746 19.995,7.2465 20,7.2456 2.0039,7.2186 2.0039,7.2186 Z"/>
 <path style="fill:#c25824" d="M 2.0039,6.8678 C 2.0016,6.9051 2.0003,6.9426 2,6.98 V 14.62 C 2.0002,15.418 2.4354,16.155 3.1416,16.554 L 9.8584,20.35 C 10.565,20.749 11.435,20.749 12.142,20.35 L 18.858,16.554 C 19.565,16.155 20,15.417 20,14.619 V 6.98 C 19.999,6.9518 19.997,6.9237 19.995,6.8956 20,6.8947 2.0039,6.8678 2.0039,6.8678 Z"/>
 <path style="fill:#f36128" d="M 11.054,1 V 1.001 A 2.2846,2.2606 0 0 0 9.8575,1.3019 L 3.1356,5.1426 A 2.2846,2.2606 0 0 0 2,6.9552 2.2846,2.2606 0 0 0 3.1356,8.7862 L 9.8575,12.627 A 2.2846,2.2606 0 0 0 12.142,12.627 L 18.864,8.7862 A 2.2846,2.2606 0 0 0 20,6.9736 2.2846,2.2606 0 0 0 18.864,5.1426 L 12.142,1.3019 A 2.2846,2.2606 0 0 0 11.054,1 Z"/>
 <path style="opacity:0.2;fill:#f4f4f7" d="M 11.053,1 V 1.0014 A 2.2846,2.2606 0 0 0 9.8581,1.3015 L 3.1362,5.142 A 2.2846,2.2606 0 0 0 2,6.9553 2.2846,2.2606 0 0 0 2.0197,7.1225 2.2846,2.2606 0 0 1 3.1362,5.4929 L 9.8581,1.6524 A 2.2846,2.2606 0 0 1 11.053,1.3522 V 1.3509 A 2.2846,2.2606 0 0 1 12.142,1.6524 L 18.864,5.4929 A 2.2846,2.2606 0 0 1 19.98,7.1383 2.2846,2.2606 0 0 0 20,6.9731 2.2846,2.2606 0 0 0 18.864,5.142 L 12.142,1.3015 A 2.2846,2.2606 0 0 0 11.053,1 Z"/>
 <path style="opacity:0.1" d="M 2.0042,6.8676 C 2.0027,6.8922 2.0021,6.917 2.0014,6.9416 A 2.2846,2.2606 0 0 1 2.0091,6.8676 Z M 2.0007,6.9615 C 2.0006,6.9676 2.0001,6.9738 2,6.98 V 14.62 C 2.0002,15.418 2.4357,16.155 3.1419,16.554 L 9.8581,20.35 C 10.222,20.555 10.594,20.655 11,20.649 V 12.928 A 2.2846,2.2606 0 0 1 9.8574,12.627 L 3.1355,8.7865 A 2.2846,2.2606 0 0 1 2.0007,6.9615 Z"/>
 <path style="opacity:0.1" d="M 2.0197,6.7902 A 2.2846,2.2606 0 0 0 2,6.9553 2.2846,2.2606 0 0 0 3.1362,8.7865 L 9.8581,12.627 A 2.2846,2.2606 0 0 0 12.142,12.627 L 18.864,8.7865 A 2.2846,2.2606 0 0 0 20,6.9731 2.2846,2.2606 0 0 0 19.98,6.8059 2.2846,2.2606 0 0 1 18.864,8.4356 L 12.142,12.276 A 2.2846,2.2606 0 0 1 9.8581,12.276 L 3.1363,8.4356 A 2.2846,2.2606 0 0 1 2.0197,6.7902 Z"/>
 <path style="opacity:0.2" d="M 15.15,10.087 C 13.726,10.898 11.978,11.367 11.09,11.495 10.382,11.597 9.5026,11.608 8.462,11.478 7.6238,10.999 7.1031,10.704 6.5937,10.41 7.366,10.522 8.3056,10.626 9.1828,10.702 10.427,10.808 12.293,10.378 13.719,9.5831 13.814,9.5299 13.909,9.4743 14.003,9.4168 16.143,8.1046 15.963,6.2392 14.203,5.1763 12.23,3.9844 9.5919,3.9306 7.5049,5.2265 6.1039,6.0964 5.71,7.4822 7.2105,8.302 8.3901,8.9466 10.134,8.9977 11.479,8.2473 12.576,7.6351 12.294,6.958 11.849,6.6949 11.425,6.4446 10.618,6.2743 9.8523,6.5729 9.2363,6.8132 9.0444,7.5444 10.297,7.6392 9.7692,7.9794 8.9461,8.0638 8.3077,7.7279 7.0615,7.072 7.8374,6.0559 8.765,5.6495 10.479,4.8985 11.976,5.1299 13.239,5.8925 14.547,6.6822 14.453,8.0904 12.871,9.0226 11.619,9.7602 9.8867,10.291 7.349,9.659 4.8112,9.0266 4.1674,7.6361 4.6704,6.1525 5.0792,4.9903 6.8216,3.7047 9.3031,3.3304 11.785,2.9561 13.772,3.2233 15.62,4.3485 18.233,5.9393 18.254,8.3207 15.15,10.087 V 10.087"/>
 <path style="fill:#f4f4f7" d="M 15.15,9.7366 C 13.726,10.547 11.978,11.017 11.09,11.145 10.201,11.273 9.0252,11.256 7.6238,10.999 L 5.7285,9.9166 C 6.5682,10.079 7.9384,10.244 9.1828,10.351 10.427,10.457 12.293,10.027 13.719,9.2323 13.814,9.1791 13.909,9.1236 14.003,9.066 16.143,7.7538 15.963,5.8884 14.203,4.8255 12.23,3.6336 9.5919,3.5798 7.5049,4.8757 6.1039,5.7456 5.71,7.1314 7.2105,7.9512 8.3901,8.5958 10.134,8.6469 11.479,7.8965 12.576,7.2843 12.294,6.6072 11.849,6.3441 11.425,6.0938 10.618,5.9235 9.8523,6.2221 9.2363,6.4624 9.0444,7.1936 10.297,7.2885 9.7692,7.6286 8.9461,7.713 8.3077,7.3771 7.0615,6.7212 7.8374,5.7051 8.765,5.2987 10.479,4.5477 11.976,4.7792 13.239,5.5417 14.547,6.3314 14.453,7.7396 12.871,8.6718 11.619,9.4094 9.8867,9.9407 7.349,9.3083 4.8112,8.6758 4.1674,7.2853 4.6704,5.8017 5.0792,4.6395 6.8216,3.3539 9.3031,2.9796 11.785,2.6053 13.772,2.8725 15.62,3.9977 18.233,5.5886 18.254,7.9699 15.15,9.7366 V 9.7366"/>
</svg>

<svg xmlns="http://www.w3.org/2000/svg" width="22" height="22"><path style="opacity:.2" d="M2.004 7.219A2.106 2.106 0 0 0 2 7.33v7.64c0 .798.435 1.535 1.142 1.934l6.716 3.796a2.328 2.328 0 0 0 2.284 0l6.716-3.796A2.225 2.225 0 0 0 20 14.97V7.33l-.005-.083C20 7.245 2.004 7.219 2.004 7.219z"/><path style="fill:#c25824" d="M2.004 6.868A2.099 2.099 0 0 0 2 6.98v7.64c0 .798.435 1.535 1.142 1.934l6.716 3.796a2.328 2.328 0 0 0 2.284 0l6.716-3.796A2.225 2.225 0 0 0 20 14.619V6.98a2.373 2.373 0 0 0-.005-.084C20 6.895 2.004 6.868 2.004 6.868z"/><path style="fill:#f36128" d="M11.054 1v.001a2.285 2.26 0 0 0-1.197.3L3.136 5.144A2.285 2.26 0 0 0 2 6.955a2.285 2.26 0 0 0 1.136 1.831l6.721 3.841a2.285 2.26 0 0 0 2.285 0l6.722-3.84A2.285 2.26 0 0 0 20 6.973a2.285 2.26 0 0 0-1.136-1.831l-6.722-3.841A2.285 2.26 0 0 0 11.054 1z"/><path style="opacity:.2;fill:#f4f4f7" d="M11.053 1v.001a2.285 2.26 0 0 0-1.195.3L3.136 5.143A2.285 2.26 0 0 0 2 6.955a2.285 2.26 0 0 0 .02.167 2.285 2.26 0 0 1 1.116-1.63l6.722-3.84a2.285 2.26 0 0 1 1.195-.3v-.001a2.285 2.26 0 0 1 1.089.301l6.722 3.84a2.285 2.26 0 0 1 1.116 1.646 2.285 2.26 0 0 0 .02-.165 2.285 2.26 0 0 0-1.136-1.831l-6.722-3.84A2.285 2.26 0 0 0 11.053 1z"/><path style="opacity:.1" d="m2.004 6.868-.003.074a2.285 2.26 0 0 1 .008-.074zm-.003.093L2 6.98v7.64c0 .798.436 1.535 1.142 1.934l6.716 3.796c.364.205.736.305 1.142.299v-7.721a2.285 2.26 0 0 1-1.143-.301l-6.721-3.84A2.285 2.26 0 0 1 2 6.96z"/><path style="opacity:.1" d="M2.02 6.79a2.285 2.26 0 0 0-.02.165 2.285 2.26 0 0 0 1.136 1.832l6.722 3.84a2.285 2.26 0 0 0 2.284 0l6.722-3.84A2.285 2.26 0 0 0 20 6.973a2.285 2.26 0 0 0-.02-.167 2.285 2.26 0 0 1-1.116 1.63l-6.722 3.84a2.285 2.26 0 0 1-2.284 0l-6.722-3.84A2.285 2.26 0 0 1 2.02 6.79z"/><path style="opacity:.2" d="M15.15 10.087c-1.424.811-3.172 1.28-4.06 1.408-.708.102-1.587.113-2.628-.017-.838-.479-1.359-.774-1.868-1.068a47.58 47.58 0 0 0 2.589.292c1.244.106 3.11-.324 4.536-1.119.095-.053.19-.109.284-.166 2.14-1.312 1.96-3.178.2-4.24a6.479 6.479 0 0 0-6.698.05c-1.401.87-1.795 2.255-.295 3.075 1.18.645 2.924.696 4.269-.055 1.097-.612.815-1.289.37-1.552-.424-.25-1.231-.42-1.997-.122-.616.24-.808.971.445 1.066-.528.34-1.35.425-1.99.089-1.246-.656-.47-1.672.458-2.079 1.714-.75 3.211-.52 4.474.244 1.308.79 1.214 2.197-.368 3.13-1.252.737-2.984 1.268-5.522.636-2.538-.632-3.182-2.023-2.679-3.507.41-1.162 2.152-2.447 4.633-2.822 2.482-.374 4.469-.107 6.317 1.018 2.613 1.591 2.634 3.973-.47 5.739"/><path style="fill:#f4f4f7" d="M15.15 9.737c-1.424.81-3.172 1.28-4.06 1.408-.889.128-2.065.111-3.466-.146L5.729 9.917c.84.162 2.21.327 3.454.434 1.244.106 3.11-.324 4.536-1.119.095-.053.19-.108.284-.166 2.14-1.312 1.96-3.178.2-4.24a6.479 6.479 0 0 0-6.698.05C6.104 5.746 5.71 7.13 7.21 7.95c1.18.645 2.924.696 4.269-.054 1.097-.613.815-1.29.37-1.553-.424-.25-1.231-.42-1.997-.122-.616.24-.808.972.445 1.066-.528.34-1.35.425-1.99.09-1.246-.657-.47-1.673.458-2.08 1.714-.75 3.211-.519 4.474.244 1.308.79 1.214 2.198-.368 3.13-1.252.737-2.984 1.269-5.522.636-2.538-.632-3.182-2.023-2.679-3.506.41-1.162 2.152-2.448 4.633-2.822 2.482-.375 4.469-.107 6.317 1.018 2.613 1.59 2.634 3.972-.47 5.739"/></svg>
